packages/astro-components-stencil/src/icons/next-week.svg

<svg xmlns="http://www.w3.org/2000/svg" viewBox="0 0 24 24"><g xmlns="http://www.w3.org/2000/svg" id="next-week" fill-rule="nonzero">
            <path d="M20 7h-4V5c0-.55-.22-1.05-.59-1.41C15.05 3.22 14.55 3 14 3h-4c-1.1 0-2 .9-2 2v2H4c-1.1 0-2 .9-2 2v11c0 1.1.9 2 2 2h16c1.1 0 2-.9 2-2V9c0-1.1-.9-2-2-2zM10 5h4v2h-4V5zm.5 13a.7.7 0 010-1l2.5-2.5-2.5-2.5a.7.7 0 010-1 .7.7 0 011 0l3.15 3.15c.2.2.2.51 0 .71L11.5 18a.7.7 0 01-1 0z"/>
        </g></svg>

<svg width="24" height="24" viewBox="0 0 24 24" fill="none" xmlns="http://www.w3.org/2000/svg">
<path fill-rule="evenodd" clip-rule="evenodd" d="M20 7H16V5C16 4.45 15.78 3.95 15.41 3.59C15.05 3.22 14.55 3 14 3H10C8.9 3 8 3.9 8 5V7H4C2.9 7 2 7.9 2 9V20C2 21.1 2.9 22 4 22H20C21.1 22 22 21.1 22 20V9C22 7.9 21.1 7 20 7ZM10 5H14V7H10V5ZM10.5 17C10.22 17.28 10.22 17.72 10.5 18C10.78 18.28 11.22 18.28 11.5 18L14.65 14.86C14.85 14.66 14.85 14.35 14.65 14.15L11.5 11C11.22 10.72 10.78 10.72 10.5 11C10.22 11.28 10.22 11.72 10.5 12L13 14.5L10.5 17Z" fill="black"/>
</svg>
